icons/desktop/16/svg/add-text-16.svg

<svg width="16" height="16" viewBox="0 0 16 16" fill="none" xmlns="http://www.w3.org/2000/svg">
<path d="M8 1C9.35414 1 10.8879 1.06812 12.5615 1.26074C13.9499 1.42036 15 2.60179 15 3.99707V4.5C15 4.91421 14.6642 5.25 14.25 5.25C13.8358 5.25 13.5 4.91421 13.5 4.5V3.99707C13.5 3.36244 13.0201 2.82349 12.3906 2.75098C11.0817 2.60032 9.8612 2.5303 8.75 2.50879V13.5H10.25C10.6642 13.5 11 13.8358 11 14.25C11 14.6642 10.6642 15 10.25 15H5.75C5.33579 15 5 14.6642 5 14.25C5 13.8358 5.33579 13.5 5.75 13.5H7.25V2.50781C5.93367 2.53321 4.70814 2.62329 3.58594 2.75293C2.97243 2.82411 2.5 3.3559 2.5 3.99414V4.5C2.5 4.91421 2.16421 5.25 1.75 5.25C1.33579 5.25 1 4.91421 1 4.5V3.99414C1 2.61448 2.02371 1.42365 3.41406 1.2627C4.79938 1.10266 6.33516 1 8 1Z" fill="black"/>
</svg>

<!-- This Source Code Form is subject to the terms of the Mozilla Public
   - License, v. 2.0. If a copy of the MPL was not distributed with this
   - file, You can obtain one at http://mozilla.org/MPL/2.0/. -->
<svg xmlns="http://www.w3.org/2000/svg" width="16" height="16" fill="context-fill" fill-opacity="context-fill-opacity" viewBox="0 0 16 16">
    <path d="M8 1c1.354 0 2.888.068 4.562.26A2.76 2.76 0 0 1 15 3.998V4.5a.75.75 0 0 1-1.5 0v-.503c0-.635-.48-1.174-1.11-1.246-1.308-.15-2.529-.22-3.64-.242V13.5h1.5a.75.75 0 0 1 0 1.5h-4.5a.75.75 0 0 1 0-1.5h1.5V2.508a38 38 0 0 0-3.664.245A1.24 1.24 0 0 0 2.5 3.994V4.5a.75.75 0 0 1-1.5 0v-.506c0-1.38 1.024-2.57 2.414-2.731A40 40 0 0 1 8 1" />
</svg>
